X:4
T:The Bush Administration
R:reel
C:Andrea Beaton & Gordie Sampson
D:Andrea Beaton, The Tap Session
O:Cape Breton
Z:Paul Stewart Cranford (P.S.C.), <http://www.cranfordpub.com>
L:1/8
M:C|
Q:333
K:Bdor
Bfef BBbB|BBbd cAec|Bfef Bbba|g2 (e/f/g) afec|
Bfef BBbB|FBBd cAec|Bfef Bbba|g2 (e/f/g) afec||
||dB B/B/B FBdB|c2 AB cdec|dB B/B/B FBdB|A2 (e/f/g) afec|
dB B/B/B FBdB|c2 AB cdec|Bfef Bbba|g2 (e/f/g) afec|]

